dist/static/img/yii/05.svg

<svg width="48" height="48" viewBox="0 0 48 48" fill="none" xmlns="http://www.w3.org/2000/svg">
<g clip-path="url(#clip0_1165_2444)">
<path d="M5.59994 3.2002H4.79997C4.35813 3.2002 4 3.55832 4 4.00016C4 4.44201 4.35813 4.80023 4.79997 4.80023H5.59994C6.04178 4.80023 6.39991 4.4421 6.39991 4.00026C6.39991 3.55841 6.04178 3.2002 5.59994 3.2002Z" fill="white"/>
<path d="M9.59994 3.2002H8.79997C8.35812 3.2002 8 3.55832 8 4.00016C8 4.44201 8.35822 4.80013 8.79997 4.80013H9.59994C10.0418 4.80013 10.3999 4.44201 10.3999 4.00016C10.3999 3.55832 10.0418 3.2002 9.59994 3.2002Z" fill="white"/>
<path d="M13.5999 3.2002H12.8C12.3581 3.2002 12 3.55832 12 4.00016C12 4.44201 12.3581 4.80013 12.8 4.80013H13.5999C14.0418 4.80013 14.3999 4.44201 14.3999 4.00016C14.3999 3.55832 14.0417 3.2002 13.5999 3.2002Z" fill="white"/>
<path d="M38.4 3.2002H16.8C16.3581 3.2002 16 3.55832 16 4.00016C16 4.44201 16.3581 4.80013 16.8 4.80013H38.4C38.8418 4.80013 39.1999 4.44201 39.1999 4.00016C39.1999 3.55832 38.8418 3.2002 38.4 3.2002Z" fill="white"/>
<path d="M46.4 28.8H45.6V24.8C45.5993 22.56 44.7405 20.4053 43.2 18.7792V4.00003C43.1974 1.79194 41.4081 0.002625 39.2 0H4.00003C1.79194 0.002625 0.002625 1.79194 0 4.00003V36C0.002625 38.208 1.79194 39.9973 4.00003 40H25.6V42.4C25.6036 45.4913 28.1087 47.9965 31.2 48H42.4C45.4913 47.9964 47.9965 45.4913 48 42.4V30.4C48 29.5163 47.2837 28.8 46.4 28.8ZM44 24.8V28.8H29.6V24.8C29.6 20.8236 32.8236 17.6 36.8 17.6C40.7764 17.6 44 20.8236 44 24.8ZM1.60003 4.00003C1.60003 2.67459 2.67459 1.60003 4.00003 1.60003H39.2001C40.5255 1.60003 41.6001 2.67459 41.6001 4.00003V6.40003H1.60003V4.00003ZM25.6 30.4V38.4H4.00003C2.67459 38.4 1.60003 37.3254 1.60003 36V7.99997H41.6001V17.4336C38.8973 15.6656 35.4428 15.5224 32.603 17.0605C29.7632 18.5987 27.9958 21.5704 28 24.8V28.8H27.2001C26.3164 28.8 25.6 29.5163 25.6 30.4ZM46.4 32H44C43.5581 32 43.2 32.3581 43.2 32.7999C43.2 33.2418 43.5581 33.5999 44 33.5999H46.4V35.1999H44C43.5581 35.1999 43.2 35.5581 43.2 35.9999C43.2 36.4417 43.5581 36.7999 44 36.7999H46.4V38.4H44C43.5581 38.4 43.2 38.7581 43.2 39.2C43.2 39.6418 43.5581 39.9999 44 39.9999H46.4V41.6H44C43.5581 41.6 43.2 41.9582 43.2 42.3999C43.2 42.8418 43.5581 43.1999 44 43.1999H46.32C45.9372 45.061 44.3001 46.3975 42.4 46.3999H31.2C29.3 46.3974 27.6627 45.061 27.28 43.1999H29.6001C30.0419 43.1999 30.4 42.8417 30.4 42.3999C30.4 41.9581 30.0419 41.6 29.6001 41.6H27.2001V39.9999H29.6001C30.0419 39.9999 30.4 39.6418 30.4 39.2C30.4 38.7581 30.0419 38.4 29.6001 38.4H27.2001V36.8H29.6001C30.0419 36.8 30.4 36.4418 30.4 36C30.4 35.5582 30.0419 35.2 29.6001 35.2H27.2001V33.6H29.6001C30.0419 33.6 30.4 33.2419 30.4 32.8C30.4 32.3582 30.0419 32.0001 29.6001 32.0001H27.2001V30.4H46.4001V32H46.4Z" fill="white"/>
<path d="M35.9995 39.0532V40.8004C35.9995 41.2423 36.3578 41.6004 36.7995 41.6004C37.2414 41.6004 37.5995 41.2423 37.5995 40.8004V39.0532C38.7008 38.6654 39.3616 37.5397 39.1638 36.389C38.966 35.2383 37.9671 34.3981 36.7995 34.4004C35.632 34.3981 34.633 35.2384 34.4352 36.389C34.2374 37.5397 34.8983 38.6654 35.9995 39.0532ZM36.7995 36.0004C37.2414 36.0004 37.5995 36.3586 37.5995 36.8004C37.5995 37.2422 37.2413 37.6004 36.7995 37.6004C36.3577 37.6004 35.9995 37.2421 35.9995 36.8004C35.9995 36.3586 36.3578 36.0004 36.7995 36.0004Z" fill="white"/>
<path d="M13.6008 16.0002C13.159 16.0002 12.8008 16.3583 12.8008 16.8002V19.2002H6.40081V12.8001H9.60078C10.0426 12.8001 10.4007 12.442 10.4007 12.0002C10.4007 11.5583 10.0426 11.2002 9.60078 11.2002H6.40081C5.51712 11.2002 4.80078 11.9165 4.80078 12.8002V19.2002C4.80078 20.0839 5.51712 20.8002 6.40081 20.8002H12.8008C13.6845 20.8002 14.4009 20.0839 14.4009 19.2002V16.8002C14.4008 16.3583 14.0426 16.0002 13.6008 16.0002Z" fill="white"/>
<path d="M8.56476 14.6342C8.25088 14.331 7.75185 14.3353 7.44332 14.6439C7.13469 14.9526 7.13038 15.4515 7.43357 15.7654L9.0336 17.3654C9.1836 17.5154 9.38704 17.5998 9.59919 17.5998H9.63519C9.85963 17.5897 10.0695 17.4859 10.2136 17.3134L14.2137 12.5134C14.3969 12.2939 14.4491 11.9933 14.3505 11.7248C14.252 11.4564 14.0178 11.261 13.7361 11.212C13.4544 11.1631 13.168 11.2682 12.9848 11.4877L9.54482 15.6157L8.56476 14.6342Z" fill="white"/>
<path d="M13.6008 29.5997C13.159 29.5997 12.8008 29.9578 12.8008 30.3997V32.7997H6.40081V26.3997H9.60078C10.0426 26.3997 10.4007 26.0415 10.4007 25.5998C10.4007 25.1579 10.0426 24.7998 9.60078 24.7998H6.40081C5.51712 24.7998 4.80078 25.5161 4.80078 26.3998V32.7999C4.80078 33.6836 5.51712 34.3999 6.40081 34.3999H12.8008C13.6845 34.3999 14.4009 33.6836 14.4009 32.7999V30.3999C14.4008 29.9579 14.0426 29.5997 13.6008 29.5997Z" fill="white"/>
<path d="M8.56476 28.2347C8.25088 27.9315 7.75185 27.9358 7.44332 28.2444C7.13469 28.553 7.13038 29.052 7.43357 29.3659L9.0336 30.9659C9.1836 31.1159 9.38704 31.2003 9.59919 31.2003H9.63519C9.85963 31.1902 10.0695 31.0864 10.2136 30.9139L14.2137 26.1139C14.3969 25.8944 14.4491 25.5938 14.3505 25.3254C14.252 25.057 14.0178 24.8615 13.7361 24.8126C13.4544 24.7637 13.168 24.8688 12.9848 25.0883L9.54482 29.2163L8.56476 28.2347Z" fill="white"/>
<path d="M17.6008 13.6H24.0008C24.4426 13.6 24.8007 13.2419 24.8007 12.8001C24.8007 12.3582 24.4426 12 24.0008 12H17.6008C17.1589 12 16.8008 12.3581 16.8008 12.8C16.8008 13.2418 17.159 13.6 17.6008 13.6Z" fill="white"/>
<path d="M28.8008 16.8C28.8008 16.3581 28.4427 16 28.0008 16H17.6008C17.1589 16 16.8008 16.3581 16.8008 16.8C16.8008 17.2418 17.1589 17.5999 17.6008 17.5999H28.0007C28.4427 17.5999 28.8008 17.2418 28.8008 16.8Z" fill="white"/>
<path d="M24.0008 25.5996H17.6008C17.1589 25.5996 16.8008 25.9578 16.8008 26.3996C16.8008 26.8413 17.1589 27.1995 17.6008 27.1995H24.0008C24.4426 27.1995 24.8007 26.8414 24.8007 26.3996C24.8007 25.9577 24.4426 25.5996 24.0008 25.5996Z" fill="white"/>
<path d="M23.2007 29.5996H17.6007C17.1589 29.5996 16.8008 29.9577 16.8008 30.3996C16.8008 30.8414 17.1589 31.1995 17.6007 31.1995H23.2007C23.6426 31.1995 24.0007 30.8414 24.0007 30.3996C24.0007 29.9577 23.6426 29.5996 23.2007 29.5996Z" fill="white"/>
</g>
<defs>
<clipPath id="clip0_1165_2444">
<rect width="48" height="48" fill="white"/>
</clipPath>
</defs>
</svg>

<svg width="48" height="48" viewBox="0 0 48 48" fill="none" xmlns="http://www.w3.org/2000/svg"><g clip-path="url(#clip0_1165_2444)" fill="#fff"><path d="M5.6 3.2h-.8a.8.8 0 100 1.6h.8a.8.8 0 100-1.6zm4 0h-.8a.8.8 0 100 1.6h.8a.8.8 0 100-1.6zm4 0h-.8a.8.8 0 100 1.6h.8a.8.8 0 100-1.6zm24.8 0H16.8a.8.8 0 100 1.6h21.6a.8.8 0 100-1.6z"/><path d="M46.4 28.8h-.8v-4c0-2.24-.86-4.395-2.4-6.02V4a4.005 4.005 0 00-4-4H4a4.005 4.005 0 00-4 4v32a4.005 4.005 0 004 4h21.6v2.4a5.606 5.606 0 005.6 5.6h11.2a5.606 5.606 0 005.6-5.6v-12a1.6 1.6 0 00-1.6-1.6zm-2.4-4v4H29.6v-4a7.2 7.2 0 0114.4 0zM1.6 4A2.4 2.4 0 014 1.6h35.2A2.4 2.4 0 0141.6 4v2.4h-40V4zm24 26.4v8H4A2.4 2.4 0 011.6 36V8h40v9.434A8.789 8.789 0 0028 24.8v4h-.8a1.6 1.6 0 00-1.6 1.6zM46.4 32H44a.8.8 0 100 1.6h2.4v1.6H44a.8.8 0 100 1.6h2.4v1.6H44a.8.8 0 100 1.6h2.4v1.6H44a.8.8 0 100 1.6h2.32a4.007 4.007 0 01-3.92 3.2H31.2a4.007 4.007 0 01-3.92-3.2h2.32a.8.8 0 000-1.6h-2.4V40h2.4a.8.8 0 100-1.6h-2.4v-1.6h2.4a.8.8 0 000-1.6h-2.4v-1.6h2.4a.8.8 0 100-1.6h-2.4v-1.6h19.2V32z"/><path d="M36 39.053V40.8a.8.8 0 001.6 0v-1.747a2.394 2.394 0 00-.8-4.653 2.394 2.394 0 00-.8 4.653zM36.8 36a.8.8 0 110 1.6.8.8 0 010-1.6zM13.6 16a.8.8 0 00-.8.8v2.4H6.4v-6.4h3.2a.8.8 0 100-1.6H6.4a1.6 1.6 0 00-1.6 1.6v6.4a1.6 1.6 0 001.6 1.6h6.4a1.6 1.6 0 001.6-1.6v-2.4a.8.8 0 00-.8-.8z"/><path d="M8.565 14.634a.8.8 0 00-1.131 1.131l1.6 1.6a.8.8 0 00.565.235h.036a.8.8 0 00.579-.287l4-4.8a.8.8 0 00-1.23-1.025l-3.44 4.128-.98-.982zM13.6 29.6a.8.8 0 00-.8.8v2.4H6.4v-6.4h3.2a.8.8 0 000-1.6H6.4a1.6 1.6 0 00-1.6 1.6v6.4a1.6 1.6 0 001.6 1.6h6.4a1.6 1.6 0 001.6-1.6v-2.4a.8.8 0 00-.8-.8z"/><path d="M8.565 28.235a.8.8 0 00-1.131 1.13l1.6 1.6a.8.8 0 00.565.235h.036a.8.8 0 00.579-.286l4-4.8a.8.8 0 10-1.23-1.026l-3.44 4.128-.98-.981zM17.6 13.6H24a.8.8 0 100-1.6h-6.4a.8.8 0 100 1.6zm11.2 3.2a.8.8 0 00-.8-.8H17.6a.8.8 0 100 1.6H28a.8.8 0 00.8-.8zM24 25.6h-6.4a.8.8 0 100 1.6H24a.8.8 0 100-1.6zm-.8 4h-5.6a.8.8 0 100 1.6h5.6a.8.8 0 100-1.6z"/></g><defs><clipPath id="clip0_1165_2444"><path fill="#fff" d="M0 0h48v48H0z"/></clipPath></defs></svg>
